X: 1
T: Pipe Major Jimmy MacGregor
C: John Scott
O: taught by Alasdair White, BHSFS 2015
N: arr. Terry Traub 2015-8-16
S: printed page from Terry Traub
R: jig
Z: 2015 John Chambers <jc:trillian.mit.edu>
M: 6/8
L: 1/8
K: D
fe |\
"Bm"dBB B2A | "G"Bdd d2e | "D"faf fed | "A"fee efe |\
"Bm"dBB B2A | "G"Bdd d2e | "D"faf "A"edB | "D"Add d :|
|: ef |\
"D"aff fed | "A"dee e2f | "D"afa fef | "G"dBB B2f |\
"D"aff fed | "A"dee e2f | "D"faf "G"edB | "D"Add d :|
|: ef |\
"D"A2B dBd | "A"ede "D"f3 | "D"afa fef | "Bm"dff "G"edB |\
"D"A2B dBd | "A"ede "D"f3 | "D"faf "G"edB | "D"Add d :|
|: ef |\
"D"Add dff | "A"edd "D"eff | "D"Add dff | "G"e2d "A"BAA |\
"D"Add dff | "Bm"edd eff | "G"faf "A"edB | "D"Add d |]
